ui/client/assets/img/expand.svg

﻿<?xml version="1.0" encoding="utf-8"?>
<!DOCTYPE svg PUBLIC "-//W3C//DTD SVG 1.1//EN" "http://www.w3.org/Graphics/SVG/1.1/DTD/svg11.dtd">
<svg xmlns="http://www.w3.org/2000/svg" xmlns:xlink="http://www.w3.org/1999/xlink" version="1.1" baseProfile="full"
     style="background-color: #4A4A4A"
     width="76.0106" height="76.0106" viewBox="0 0 76.01 76.01" enable-background="new 0 0 76.01 76.01" xml:space="preserve">
	<path fill="#999999" fill-opacity="1" stroke-width="0.2" stroke-linejoin="round" d="M 57.0079,38.0053L 38.0053,47.5066L 19.0027,38.0053L 25.3369,34.8382L 38.0053,41.1724L 50.6737,34.8382L 57.0079,38.0053 Z M 38.0053,19.0027L 57.0079,28.504L 38.0053,38.0053L 19.0026,28.504L 38.0053,19.0027 Z M 57.0079,47.5066L 38.0053,57.008L 19.0026,47.5066L 25.3369,44.3395L 38.0053,50.6737L 50.6737,44.3395L 57.0079,47.5066 Z "/>
</svg>

<svg xmlns="http://www.w3.org/2000/svg" baseProfile="full" style="background-color:#4a4a4a" width="76.011" height="76.011" viewBox="0 0 76.01 76.01"><path fill="#999" d="M57.008 38.005l-19.003 9.502-19.002-9.502 6.334-3.167 12.668 6.334 12.669-6.334 6.334 3.167zM38.005 19.003l19.003 9.501-19.003 9.501-19.002-9.501 19.002-9.501zm19.003 28.504l-19.003 9.501-19.002-9.501 6.334-3.167 12.668 6.334 12.669-6.334 6.334 3.167z"/></svg>
